src/assets/cells/t_cell_1.svg

<svg
  xmlns="http://www.w3.org/2000/svg"
  strokeLinecap="round"
  strokeLinejoin="round"
  clipRule="evenodd"
  viewBox="0 0 2747.33 2394.05"
>
  <path
    fill="#b2d8ff"
    d="M565.842 392.317C1008.86-42.495 1720.52-35.803 2155.38 407.262c434.85 443.065 428.23 1154.728-14.79 1589.538-443.02 434.81-1154.678 428.12-1589.533-14.95-434.856-443.06-428.236-1154.722 14.785-1589.533z"
  ></path>
  <path
    fill="#4b88c6"
    d="M982.751 155.288c2.73-.721 19.129-.422 16.339-.994-.904.288-15.954 4.395-16.858 4.683-1.357.432-5.294 1.304-6.651 1.736-1.81.577-11.208 6.117-13.018 6.693-17.337 7.107-27.046 9.428-44.258 16.76-4.954 2.688-9.239 6.375-13.732 9.729-28.338 26.486-64.524 41.25-97.8 60.135-24.173 17.338-45.152 38.769-69.278 56.213-7.541 5.466-14.819 11.299-22.556 16.49-48.713 24.45-82.528 68.452-123.161 103.345-23.457 19.276-48.295 35.249-72.223 53.897-39.724 55.079-92.397 102.701-124.29 163.663-5.784 9.792-12.029 19.327-17.259 29.434-36.966 85.686-68.782 174.305-86.223 266.129-23.954 71.109-27.867 146.579-31.082 220.779.056 11.9 5.604 22.73 6.761 34.44 1.245 13.08.038 26.26.962 39.36 9.385 74.47 23.974 148.1 34.442 222.38 18.462 62.51 47.824 121.61 61.719 185.53a133.16 133.16 0 007.315 18.91 122.82 122.82 0 007.161 12.97c23.866 27.27 35.174 62.25 56.242 91.21 18.701 28.58 46.781 48.48 72.466 70.12 13.76 15.38 24.7 33.17 39.347 47.8 15.525 12.8 32.111 24.41 46.309 38.81 11.497 9.88 19.485 22.92 30.146 33.57 28.02 25.01 60.126 45.32 84.208 74.58 35.997 25.01 71.243 50.72 106.384 76.92 34.492 16.14 68.351 35.11 105.978 43.03a230.024 230.024 0 0117.821 6.5c5.815 2.38 11.521 5.03 17.139 7.84 88.229 48.27 190.699 56.98 287.539 78.34 64.97 2.14 129.59 10.42 194.64 10.98 24.83.31 48.8-8.69 73.69-6.89 42.26-3.81 81.87-20.57 123.69-26.41 26.18-10.37 49.5-27.13 76.46-35.82 6.73-2.37 13.6-4.3 20.48-6.15 43.59-8.03 83.88-28.52 121.55-51.3 49.9-22.82 95.91-52.98 141.93-82.5 46.3-42.53 93.25-84.39 140.93-125.35 14.19-19.28 27.57-39.28 41.03-59.13 27.66-30.28 48.15-67.44 80.53-93.23 20.63-39.3 39.91-79.55 64.48-116.52 8.21-29.33 16.48-58.65 25.99-87.6 11.84-24.77 24.99-49 38.25-73.08 3.01-6.51 4.82-13.49 6.61-20.41 16.3-52.68 10.72-108.5 23.57-161.76 1.28-13.8 1.31-27.72 5.05-41.21-.63-28.93-1.97-58.16 1.84-87.05-2.12-50.13 1.74-100.46-5.25-150.37.49-22.45 2.53-44.892-1.24-67.229-11.87-33.899-18.45-69.152-26.02-104.209-9.47-27.856-20.34-55.087-35.79-80.2-3.9-7.839-7.51-15.825-10.89-23.904a199.813 199.813 0 01-6.64-18.875c-7.54-37.479-29.06-69.3-48.28-101.413-15.68-27.126-23.13-57.909-39.21-84.844-11.16-21.097-32.48-33.751-47.02-52.201-16.48-17.119-25.86-39.531-42.51-56.499-14.72-17.268-34.82-28.529-51.37-43.8-21.66-22.777-44.25-44.71-70.8-61.767-9.96-8.727-18.4-19.012-28.09-28.015-45.54-32.085-94.89-58.596-141.33-89.141-39.53-19.614-81.49-34.316-118.6-58.61a187.44 187.44 0 00-18.3-8.192c-61.89-19.15-125.54-32.863-186.86-53.608-28.89-2.201-57.76-4.342-86.77-4.918-26.17-2.448-52.39-4.364-78.58-6.383-40.01 2.734-80.13 2.994-119.9 8.711-38.89 12.949-80.05 14.651-119.87 22.865-72.47 23.091-144.238 47.915-215.734 73.839-36.014 24.606-76.71 40.783-116.833 57.156-20.724 11.893-36.343 30.891-57.346 42.442-23.006 14.062-48.072 24.314-71.687 37.116-18.94 13.301-40.101 27.828-57.733 42.646-68.07 45.383-120.619 106.776-165.5 175.28-15.318 19.809-33.956 36.944-47.637 58.027-55.628 85.717-93.709 182.629-108.528 283.672-19.204 75.297-29.522 152.954-31.955 230.464 2.979 31.7 9.553 62.99 15.734 94.19 2.255 11.03 4.445 22.07 6.652 33.11l-1.079-5.35c-7.977-40.47-17.442-80.83-21.535-121.94 2.259-77.55 12.582-155.212 31.393-230.627 10.13-61.346 24.08-123.109 51.868-179.215 23.609-60.406 64.459-125.854 108.556-173.708 44.473-69.109 98.141-126.713 165.777-173.269 17.595-15.32 30.893-25.704 49.961-39.365 26.78-15.163 55.648-26.938 80.939-44.787 16.388-11.578 29.699-27.183 47.199-37.228 18.641-10.503 39.75-15.457 58.465-25.871 20.198-9.707 39.057-21.72 57.795-33.831 73.651-28.555 147.488-56.473 222.398-81.538 38.3-7.652 77.49-11.664 114.56-24.757 41.07-7.157 82.66-8.855 124.09-12.752 28.54 1.112 57.07 2.544 85.6 4.157 28.27-1.024 56.43.997 84.63 2.137 64.14 18.768 130.19 30.961 194.66 48.746a223.175 223.175 0 0122.3 9.072c46.43 29.593 102.6 39.47 147.66 71.215 41.39 20.926 81.06 45.229 120.75 69.188 21.69 20.271 44.22 39.051 69.09 55.348 28.24 28.317 60.61 51.553 91.03 77.267 28.29 27.876 46.24 64.731 78.93 88.542 3.26 3.092 6.4 6.313 9.4 9.661 4.51 5.075 8.54 10.549 12.38 16.138 8.12 11.963 14.26 25.105 21.25 37.728 1.78 3.535 3.47 7.116 5.04 10.751 18.84 54.248 63.38 95.845 75.36 153.206 2.18 6.934 4.78 13.74 7.96 20.277 3.64 7.709 7.52 15.305 11.79 22.68 26.57 42.653 42.02 91.436 50.59 140.835 4.47 17.135 12.54 33.174 15.9 50.631 4.72 25.975 5.04 52.319 3.76 78.559 8.16 50.86 4.47 102.4 7.47 153.58-2.87 28.1-2.31 56.4-.58 84.51-1.07 15.48-5.39 30.61-4.72 46.26-12.65 58.65-7.15 119.66-24.63 177.57-8.77 37-31.45 68.38-47.37 102.41-9.85 32.19-16.94 65.33-29.55 96.62-25.44 38-43.64 80.15-66.1 119.88-14.62 19.66-34.69 34.03-48.77 54.34-6.68 7.24-11.39 15.9-17.03 23.9-24.96 25.54-40.56 58.35-63.82 85.27-50.11 45.4-101.25 89.68-151.41 135.1-49.17 32.01-98.65 64.22-152.2 88.66-47.11 29.38-90.92 51.94-145.09 63.36-27.81 9.58-60.2 25.88-88.54 34.13-54.21 9.07-106.94 30.08-162.66 28.59-19.96 3.56-40.19 6.33-60.51 5.72-66.72-1.95-132.93-10.88-199.53-14.74-103.78-24.02-213.26-37.13-306.644-91.47a175.01 175.01 0 00-17.293-8.27c-42.585-11.29-81.523-31.93-120.444-52.09-22.693-14.47-42.926-32.35-63.351-49.73-32.555-20.02-60.984-45.47-85.552-74.54-26.868-21.67-54.275-43.49-73.705-72.46-3.326-3.96-7.039-7.57-10.67-11.24-13.741-15.07-31.467-25.81-44.896-41.14-12.532-14.23-22.478-30.44-33.957-45.46-20.627-18.54-42.968-35.8-59.682-58.26-29.429-34.41-40.305-79.55-67.874-115.15-3.046-5.36-5.824-10.88-8.263-16.55-3.309-7.66-6.005-15.57-8.166-23.63-11.609-64.96-39.013-125.63-54.982-189.41-8.155-75.63-20.227-150.78-27.477-226.55-.628-12.94 1.05-25.91.317-38.85-1.601-13.81-7.257-27.11-5.658-41.29 5.473-73.68 11.581-148.5 36.866-218.695 19.66-91.869 53.126-180.384 91.642-265.931 5.441-10.137 11.906-19.677 17.888-29.497 32.881-60.744 82.358-100.644 122.936-155.453 21.205-16.21 58.607-46.242 79.611-62.752 14.992-12.269 16.793-17.327 31.763-29.653 26.714-27.188 54.691-54.032 89.188-71.144 25.806-17.432 49.594-37.543 73.26-57.723 6.085-5.097 12.008-10.448 18.792-14.631 33.31-18.823 69.529-33.507 97.919-59.936 4.5-3.361 8.821-7.006 13.752-9.745 21.843-8.811 42.199-21.014 64.531-28.722"
  ></path>
  <g
    stroke="#fbfbfb"
    strokeLinecap="square"
    strokeLinejoin="bevel"
    strokeWidth="12.984"
  >
    <path
      fill="#28425d"
      d="M1507.84 2022.01h0c-445.44 107.36-887.654-142.09-987.702-557.17l-26.962-111.86C393.128 937.901 673.129 514.373 1118.58 407.006h0c445.44-107.367 887.65 142.083 987.7 557.164l26.96 111.86c100.05 415.08-179.95 838.61-625.4 945.98z"
    ></path>
    <path
      fill="#fbfbfb"
      d="M2152.46 1188.82c-.54 2-33.28-188.39-33.28-188.39s-52.29-163.441-54.01-162.332c-13.45-15.484-28.11-30.125-38.81-47.78-54.48-93.163-125.4-181.561-221.79-232.242-31.02-22.802-65.57-39.219-98.21-58.952-24.17-8.217-48.35-16.51-72.32-25.392-23.91-5.437-48.07-8.431-72.12-12.262-39.3-9.768-79.01-24.593-118.95-18.477-5.91.358-11.86.375-17.83.048-27.36-.559-54.24-9.194-81.4-11.444-41.78-.132-79.82 18.236-121.69 18.191-5.32.48-10.6 1.253-15.78 2.371-33.63 10.361-66.93 21.795-101.66 28.831-27.11 13.05-53.74 27.127-81.64 38.656-43.17 12.649-81.455 36.249-123.12 52.242-28.363 20.213-59.179 37.28-83.671 62.414-37.995 27.505-71.806 60.543-100.131 98.154-19.708 31.584-35.48 65.808-53.524 98.486-6.518 17.444-10.725 35.904-18.51 52.816-15.526 33.164-32.299 65.697-38.691 102.89-6.689 20.772-16.791 40.232-19.763 62.412-4.8 21.71-17.076 45.41-20.52 67.38-2.751 17.82-9.739 62.01-11.36 80.14-.937 44.71 1.305 96.06-.415 97.79-2.722 2.73-.16 40.08.519 46.31 13.28 72.39 46.547 208.88 43.652 214.98-2.895 6.1 94.777 154.1 141.58 206.69 42.528 59.66 62.29 77.97 113.889 129.21 33.586 25.22 80.377 47.94 112.592 74.97 18.949 11.86 69.433 24.7 88.703 36 9.72 5.38 135.38 38.01 145.86 39.43-10.48-1.4-144.58-37.65-154.32-43.01-19.3-11.27-62.353-21.76-81.339-33.57-32.298-26.96-66.641-44.06-100.414-69.03-52.181-50.83-120.647-113.73-132.803-133.06-12.155-19.33-104.382-141.68-136.019-205.42-24.781-71.74-64.132-227.77-60.754-231.87 3.378-4.09-7.274-23.9-7.286-30.67 5.2-43.79 1.836-78.77-.029-122.45-.708-21.38 4.208-31.18 7.229-51.77 2.108-22.51 15.676-57.57 20.085-79.75 2.496-23.64 11.819-44.928 18.735-67.024 5.682-38.35 21.856-72.377 37.276-106.668 7.496-17.196 11.128-35.991 17.789-53.519 18.525-35.353 31.332-62.796 52.472-96.497 28.709-38.785 37.207-44.544 94.088-99.763 27.863-27.442 72.291-59.336 104.669-80.944a141.249 141.249 0 0111.733-5.957c39.944-13.294 75.204-36.989 116.438-47.208 28.23-11.208 55.09-25.249 82.92-37.234 36.37-6.939 71.54-17.791 107.16-27.138 6.11-1.066 12.29-1.839 18.53-2.222 41.02 1.217 79.14-14.42 120.09-13.326 28.08.422 55.03 12.888 83.1 15.184 5.51.821 11.05 1.315 16.57 1.479 43.61-4.129 86.2 11.82 128.21 25.469 24.16 5.061 48.47 9.389 72.41 16.056 24.15 10.132 48.55 19.646 72.94 29.106 32.36 21.091 66.73 38.931 97.52 62.762 93.4 52.56 210.8 222.546 216.99 229.943 7.31 8.74 32.45 49.883 65.27 122"
    ></path>
  </g>
</svg>

<?xml version="1.0" encoding="UTF-8" standalone="no"?> <!-- Created with Vectornator for iOS (http://vectornator.io/) --><!DOCTYPE svg PUBLIC "-//W3C//DTD SVG 1.1//EN" "http://www.w3.org/Graphics/SVG/1.1/DTD/svg11.dtd">
<svg height="100%" style="fill-rule:nonzero;clip-rule:evenodd;stroke-linecap:round;stroke-linejoin:round;" xmlnsXlink="http://www.w3.org/1999/xlink" xmlns="http://www.w3.org/2000/svg" xmlSpace="preserve" width="100%" xmlnsvectornator="http://vectornator.io" version="1.1" viewBox="0 0 2747.33 2394.05">
<metadata>
<vectornatorSetting key="DimensionsVisible" value="1"/>
<vectornatorSetting key="PencilOnly" value="0"/>
<vectornatorSetting key="SnapToPoints" value="0"/>
<vectornatorSetting key="OutlineMode" value="0"/>
<vectornatorSetting key="CMYKEnabledKey" value="0"/>
<vectornatorSetting key="RulersVisible" value="1"/>
<vectornatorSetting key="SnapToEdges" value="0"/>
<vectornatorSetting key="GuidesVisible" value="1"/>
<vectornatorSetting key="DisplayWhiteBackground" value="0"/>
<vectornatorSetting key="doHistoryDisabled" value="0"/>
<vectornatorSetting key="SnapToGuides" value="1"/>
<vectornatorSetting key="TimeLapseWatermarkDisabled" value="0"/>
<vectornatorSetting key="Units" value="Millimeters"/>
<vectornatorSetting key="DynamicGuides" value="0"/>
<vectornatorSetting key="IsolateActiveLayer" value="0"/>
<vectornatorSetting key="SnapToGrid" value="0"/>
</metadata>
<defs/>
<g id="Layer 1" vectornatorlayername="Layer 1">
<path d="M565.842+392.317L565.842+392.317C1008.86-42.495+1720.52-35.8039+2155.38+407.262L2155.38+407.262C2590.23+850.327+2583.61+1561.99+2140.59+1996.8L2140.59+1996.8C1697.57+2431.61+985.912+2424.92+551.057+1981.85L551.057+1981.85C116.201+1538.79+122.821+827.128+565.842+392.317Z" opacity="1" fill="#b2d8ff"/>
<path d="M982.751+155.288C985.481+154.567+1001.88+154.866+999.09+154.294C998.186+154.582+983.136+158.689+982.232+158.977C980.875+159.409+976.938+160.281+975.581+160.713C973.771+161.29+964.373+166.83+962.563+167.406C945.226+174.513+935.517+176.834+918.305+184.166C913.351+186.854+909.066+190.541+904.573+193.895C876.235+220.381+840.049+235.145+806.773+254.03C782.6+271.368+761.621+292.799+737.495+310.243C729.954+315.709+722.676+321.542+714.939+326.733C666.226+351.183+632.411+395.185+591.778+430.078C568.321+449.354+543.483+465.327+519.555+483.975C479.831+539.054+427.158+586.676+395.265+647.638C389.481+657.43+383.236+666.965+378.006+677.072C341.04+762.758+309.224+851.377+291.783+943.201C267.829+1014.31+263.916+1089.78+260.701+1163.98C260.757+1175.88+266.305+1186.71+267.462+1198.42C268.707+1211.5+267.5+1224.68+268.424+1237.78C277.809+1312.25+292.398+1385.88+302.866+1460.16C321.328+1522.67+350.69+1581.77+364.585+1645.69C366.535+1652.17+368.992+1658.5+371.9+1664.6C374.031+1669.06+376.409+1673.4+379.061+1677.57C402.927+1704.84+414.235+1739.82+435.303+1768.78C454.004+1797.36+482.084+1817.26+507.769+1838.9C521.529+1854.28+532.469+1872.07+547.116+1886.7C562.641+1899.5+579.227+1911.11+593.425+1925.51C604.922+1935.39+612.91+1948.43+623.571+1959.08C651.591+1984.09+683.697+2004.4+707.779+2033.66C743.776+2058.67+779.022+2084.38+814.163+2110.58C848.655+2126.72+882.514+2145.69+920.141+2153.61C926.168+2155.53+932.114+2157.7+937.962+2160.11C943.777+2162.49+949.483+2165.14+955.101+2167.95C1043.33+2216.22+1145.8+2224.93+1242.64+2246.29C1307.61+2248.43+1372.23+2256.71+1437.28+2257.27C1462.11+2257.58+1486.08+2248.58+1510.97+2250.38C1553.23+2246.57+1592.84+2229.81+1634.66+2223.97C1660.84+2213.6+1684.16+2196.84+1711.12+2188.15C1717.85+2185.78+1724.72+2183.85+1731.6+2182C1775.19+2173.97+1815.48+2153.48+1853.15+2130.7C1903.05+2107.88+1949.06+2077.72+1995.08+2048.2C2041.38+2005.67+2088.33+1963.81+2136.01+1922.85C2150.2+1903.57+2163.58+1883.57+2177.04+1863.72C2204.7+1833.44+2225.19+1796.28+2257.57+1770.49C2278.2+1731.19+2297.48+1690.94+2322.05+1653.97C2330.26+1624.64+2338.53+1595.32+2348.04+1566.37C2359.88+1541.6+2373.03+1517.37+2386.29+1493.29C2389.3+1486.78+2391.11+1479.8+2392.9+1472.88C2409.2+1420.2+2403.62+1364.38+2416.47+1311.12C2417.75+1297.32+2417.78+1283.4+2421.52+1269.91C2420.89+1240.98+2419.55+1211.75+2423.36+1182.86C2421.24+1132.73+2425.1+1082.4+2418.11+1032.49C2418.6+1010.04+2420.64+987.598+2416.87+965.261C2405+931.362+2398.42+896.109+2390.85+861.052C2381.38+833.196+2370.51+805.965+2355.06+780.852C2351.16+773.013+2347.55+765.027+2344.17+756.948C2341.65+750.771+2339.42+744.473+2337.53+738.073C2329.99+700.594+2308.47+668.773+2289.25+636.66C2273.57+609.534+2266.12+578.751+2250.04+551.816C2238.88+530.719+2217.56+518.065+2203.02+499.615C2186.54+482.496+2177.16+460.084+2160.51+443.116C2145.79+425.848+2125.69+414.587+2109.14+399.316C2087.48+376.539+2064.89+354.606+2038.34+337.549C2028.38+328.822+2019.94+318.537+2010.25+309.534C1964.71+277.449+1915.36+250.938+1868.92+220.393C1829.39+200.779+1787.43+186.077+1750.32+161.783C1744.37+158.732+1738.26+155.988+1732.02+153.591C1670.13+134.441+1606.48+120.728+1545.16+99.9835C1516.27+97.7819+1487.4+95.6413+1458.39+95.0651C1432.22+92.617+1406+90.7007+1379.81+88.6818C1339.8+91.4158+1299.68+91.6761+1259.91+97.393C1221.02+110.342+1179.86+112.044+1140.04+120.258C1067.57+143.349+995.802+168.173+924.306+194.097C888.292+218.703+847.596+234.88+807.473+251.253C786.749+263.146+771.13+282.144+750.127+293.695C727.121+307.757+702.055+318.009+678.44+330.811C659.5+344.112+638.339+358.639+620.707+373.457C552.637+418.84+500.088+480.233+455.207+548.737C439.889+568.546+421.251+585.681+407.57+606.764C351.942+692.481+313.861+789.393+299.042+890.436C279.838+965.733+269.52+1043.39+267.087+1120.9C270.066+1152.6+276.64+1183.89+282.821+1215.09C285.076+1226.12+287.266+1237.16+289.473+1248.2C289.113+1246.42+288.753+1244.63+288.394+1242.85C280.417+1202.38+270.952+1162.02+266.859+1120.91C269.118+1043.36+279.441+965.698+298.252+890.283C308.382+828.937+322.332+767.174+350.12+711.068C373.729+650.662+414.579+585.214+458.676+537.36C503.149+468.251+556.817+410.647+624.453+364.091C642.048+348.771+655.346+338.387+674.414+324.726C701.194+309.563+730.062+297.788+755.353+279.939C771.741+268.361+785.052+252.756+802.552+242.711C821.193+232.208+842.302+227.254+861.017+216.84C881.215+207.133+900.074+195.12+918.812+183.009C992.463+154.454+1066.3+126.536+1141.21+101.471C1179.51+93.8192+1218.7+89.8069+1255.77+76.7137C1296.84+69.557+1338.43+67.8593+1379.86+63.9616C1408.4+65.0735+1436.93+66.5056+1465.46+68.1185C1493.73+67.0953+1521.89+69.1157+1550.09+70.2561C1614.23+89.0242+1680.28+101.217+1744.75+119.002C1752.34+121.62+1759.79+124.655+1767.05+128.074C1813.48+157.667+1869.65+167.544+1914.71+199.289C1956.1+220.215+1995.77+244.518+2035.46+268.477C2057.15+288.748+2079.68+307.528+2104.55+323.825C2132.79+352.142+2165.16+375.378+2195.58+401.092C2223.87+428.968+2241.82+465.823+2274.51+489.634C2277.77+492.726+2280.91+495.947+2283.91+499.295C2288.42+504.37+2292.45+509.844+2296.29+515.433C2304.41+527.396+2310.55+540.538+2317.54+553.161C2319.32+556.696+2321.01+560.277+2322.58+563.912C2341.42+618.16+2385.96+659.757+2397.94+717.118C2400.12+724.052+2402.72+730.858+2405.9+737.395C2409.54+745.104+2413.42+752.7+2417.69+760.075C2444.26+802.728+2459.71+851.511+2468.28+900.91C2472.75+918.045+2480.82+934.084+2484.18+951.541C2488.9+977.516+2489.22+1003.86+2487.94+1030.1C2496.1+1080.96+2492.41+1132.5+2495.41+1183.68C2492.54+1211.78+2493.1+1240.08+2494.83+1268.19C2493.76+1283.67+2489.44+1298.8+2490.11+1314.45C2477.46+1373.1+2482.96+1434.11+2465.48+1492.02C2456.71+1529.02+2434.03+1560.4+2418.11+1594.43C2408.26+1626.62+2401.17+1659.76+2388.56+1691.05C2363.12+1729.05+2344.92+1771.2+2322.46+1810.93C2307.84+1830.59+2287.77+1844.96+2273.69+1865.27C2267.01+1872.51+2262.3+1881.17+2256.66+1889.17C2231.7+1914.71+2216.1+1947.52+2192.84+1974.44C2142.73+2019.84+2091.59+2064.12+2041.43+2109.54C1992.26+2141.55+1942.78+2173.76+1889.23+2198.2C1842.12+2227.58+1798.31+2250.14+1744.14+2261.56C1716.33+2271.14+1683.94+2287.44+1655.6+2295.69C1601.39+2304.76+1548.66+2325.77+1492.94+2324.28C1472.98+2327.84+1452.75+2330.61+1432.43+2330C1365.71+2328.05+1299.5+2319.12+1232.9+2315.26C1129.12+2291.24+1019.64+2278.13+926.256+2223.79C920.651+2220.72+914.874+2217.96+908.963+2215.52C866.378+2204.23+827.44+2183.59+788.519+2163.43C765.826+2148.96+745.593+2131.08+725.168+2113.7C692.613+2093.68+664.184+2068.23+639.616+2039.16C612.748+2017.49+585.341+1995.67+565.911+1966.7C562.585+1962.74+558.872+1959.13+555.241+1955.46C541.5+1940.39+523.774+1929.65+510.345+1914.32C497.813+1900.09+487.867+1883.88+476.388+1868.86C455.761+1850.32+433.42+1833.06+416.706+1810.6C387.277+1776.19+376.401+1731.05+348.832+1695.45C345.786+1690.09+343.008+1684.57+340.569+1678.9C337.26+1671.24+334.564+1663.33+332.403+1655.27C320.794+1590.31+293.39+1529.64+277.421+1465.86C269.266+1390.23+257.194+1315.08+249.944+1239.31C249.316+1226.37+250.994+1213.4+250.261+1200.46C248.66+1186.65+243.004+1173.35+244.603+1159.17C250.076+1085.49+256.184+1010.67+281.469+940.475C301.129+848.606+334.595+760.091+373.111+674.544C378.552+664.407+385.017+654.867+390.999+645.047C423.88+584.303+473.357+544.403+513.935+489.594C535.14+473.384+572.542+443.352+593.546+426.842C608.538+414.573+610.339+409.515+625.309+397.189C652.023+370.001+680+343.157+714.497+326.045C740.303+308.613+764.091+288.502+787.757+268.322C793.842+263.225+799.765+257.874+806.549+253.691C839.859+234.868+876.078+220.184+904.468+193.755C908.968+190.394+913.289+186.749+918.22+184.01C940.063+175.199+960.419+162.996+982.751+155.288" opacity="1" fill="#4b88c6"/>
</g>
<g id="Layer 1 copy" vectornatorlayername="Layer 1 copy">
<g opacity="1">
<path stroke="#fbfbfb" stroke-width="12.9836" d="M1507.84+2022.01L1507.84+2022.01C1062.4+2129.37+620.186+1879.92+520.138+1464.84L493.176+1352.98C393.128+937.901+673.129+514.373+1118.58+407.006L1118.58+407.006C1564.02+299.639+2006.23+549.089+2106.28+964.17L2133.24+1076.03C2233.29+1491.11+1953.29+1914.64+1507.84+2022.01Z" fill="#28425d" stroke-linecap="square" opacity="1" stroke-linejoin="bevel"/>
<path stroke="#fbfbfb" stroke-width="12.9836" d="M2152.46+1188.82C2151.92+1190.82+2119.18+1000.43+2119.18+1000.43C2119.18+1000.43+2066.89+836.989+2065.17+838.098C2051.72+822.614+2037.06+807.973+2026.36+790.318C1971.88+697.155+1900.96+608.757+1804.57+558.076C1773.55+535.274+1739+518.857+1706.36+499.124C1682.19+490.907+1658.01+482.614+1634.04+473.732C1610.13+468.295+1585.97+465.301+1561.92+461.47C1522.62+451.702+1482.91+436.877+1442.97+442.993C1437.06+443.351+1431.11+443.368+1425.14+443.041C1397.78+442.482+1370.9+433.847+1343.74+431.597C1301.96+431.465+1263.92+449.833+1222.05+449.788C1216.73+450.268+1211.45+451.041+1206.27+452.159C1172.64+462.52+1139.34+473.954+1104.61+480.99C1077.5+494.04+1050.87+508.117+1022.97+519.646C979.8+532.295+941.515+555.895+899.85+571.888C871.487+592.101+840.671+609.168+816.179+634.302C778.184+661.807+744.373+694.845+716.048+732.456C696.34+764.04+680.568+798.264+662.524+830.942C656.006+848.386+651.799+866.846+644.014+883.758C628.488+916.922+611.715+949.455+605.323+986.648C598.634+1007.42+588.532+1026.88+585.56+1049.06C580.76+1070.77+568.484+1094.47+565.04+1116.44C562.289+1134.26+555.301+1178.45+553.68+1196.58C552.743+1241.29+554.985+1292.64+553.265+1294.37C550.543+1297.1+553.105+1334.45+553.784+1340.68C567.064+1413.07+600.331+1549.56+597.436+1555.66C594.541+1561.76+692.213+1709.76+739.016+1762.35C781.544+1822.01+801.306+1840.32+852.905+1891.56C886.491+1916.78+933.282+1939.5+965.497+1966.53C984.446+1978.39+1034.93+1991.23+1054.2+2002.53C1063.92+2007.91+1189.58+2040.54+1200.06+2041.96C1189.58+2040.56+1055.48+2004.31+1045.74+1998.95C1026.44+1987.68+983.387+1977.19+964.401+1965.38C932.103+1938.42+897.76+1921.32+863.987+1896.35C811.806+1845.52+743.34+1782.62+731.184+1763.29C719.029+1743.96+626.802+1621.61+595.165+1557.87C570.384+1486.13+531.033+1330.1+534.411+1326C537.789+1321.91+527.137+1302.1+527.125+1295.33C532.325+1251.54+528.961+1216.56+527.096+1172.88C526.388+1151.5+531.304+1141.7+534.325+1121.11C536.433+1098.6+550.001+1063.54+554.41+1041.36C556.906+1017.72+566.229+996.432+573.145+974.336C578.827+935.986+595.001+901.959+610.421+867.668C617.917+850.472+621.549+831.677+628.21+814.149C646.735+778.796+659.542+751.353+680.682+717.652C709.391+678.867+717.889+673.108+774.77+617.889C802.633+590.447+847.061+558.553+879.439+536.945C883.255+534.785+887.16+532.789+891.172+530.988C931.116+517.694+966.376+493.999+1007.61+483.78C1035.84+472.572+1062.7+458.531+1090.53+446.546C1126.9+439.607+1162.07+428.755+1197.69+419.408C1203.8+418.342+1209.98+417.569+1216.22+417.186C1257.24+418.403+1295.36+402.766+1336.31+403.86C1364.39+404.282+1391.34+416.748+1419.41+419.044C1424.92+419.865+1430.46+420.359+1435.98+420.523C1479.59+416.394+1522.18+432.343+1564.19+445.992C1588.35+451.053+1612.66+455.381+1636.6+462.048C1660.75+472.18+1685.15+481.694+1709.54+491.154C1741.9+512.245+1776.27+530.085+1807.06+553.916C1900.46+606.476+2017.86+776.462+2024.05+783.859C2031.36+792.599+2056.5+833.742+2089.32+905.859" fill="#fbfbfb" stroke-linecap="square" opacity="1" stroke-linejoin="bevel"/>
</g>
</g>
</svg>
